app/dist/common/images/cvb-financial.svg

<svg height="18" width="18" xmlns="http://www.w3.org/2000/svg"><path d="m0 0h18v18h-18z" fill="#818286"/><g fill="#fff"><path d="m4.48 12h2.49c.101-.029.043-.196 0-.268 0 0-.97-2.464-1.04-2.576s-.171-.153-.213-.156h-.93c-.16 0-.232-.355-.24-.524-.008-.168.097-.476.24-.476h1.423s.203 0 .203.132l1.587 3.868h2l1.855-3.898s0-.102.139-.102h1.879c.37-.01 1.127.073 1.127-1s-.758-.984-1.127-1h-3.733s-.084 0-.108.082l-.938 1.918c-.094.082-.184 0-.184 0l-.92-1.918c-.063-.082-.183-.082-.183-.082h-3.417c-.927 0-2.36 1.066-2.372 3.107-.013 2.041 1.637 2.784 2.462 2.893z"/><path d="m13.793 9h-1.328c-.113 0-.191.112-.216.168l-1.236 2.664a.125.125 0 0 0 .083.168h2.697c.391.003 1.18-.29 1.206-1.486.027-1.196-.793-1.508-1.206-1.514z"/></g></svg>

<!-- by TradingView --><svg width="18" height="18" xmlns="http://www.w3.org/2000/svg"><path fill="#818286" d="M0 0h18v18H0z"/><path d="M4.48 12h2.49c.101-.029.043-.196 0-.268 0 0-.97-2.464-1.04-2.576-.07-.112-.171-.153-.213-.156h-.93c-.16 0-.232-.355-.24-.524-.008-.168.097-.476.24-.476H6.21s.203 0 .203.132L8 12h2l1.855-3.898s0-.102.139-.102h1.879c.37-.01 1.127.073 1.127-1s-.758-.984-1.127-1H10.14s-.084 0-.108.082L9.094 8C9 8.082 8.91 8 8.91 8l-.92-1.918C7.927 6 7.807 6 7.807 6H4.39C3.463 6 2.03 7.066 2.018 9.107 2.005 11.148 3.655 11.891 4.48 12z" fill="#fff"/><path d="M13.793 9h-1.328c-.113 0-.191.112-.216.168l-1.236 2.664a.125.125 0 00.083.168h2.697c.391.003 1.18-.29 1.206-1.486.027-1.196-.793-1.508-1.206-1.514z" fill="#fff"/></svg>
